docs/img/Group2.svg

<svg width="101" height="48" viewBox="0 0 101 48" fill="none" xmlns="http://www.w3.org/2000/svg">
<path d="M0.790039 28.7899H3.79004V43.4999H0.790039V28.7899Z" fill="#696871"/>
<path fill-rule="evenodd" clip-rule="evenodd" d="M8.81956 33.5193C6.82446 34.3489 5.52598 36.2992 5.53003 38.4599C5.51649 39.8793 6.07507 41.2445 7.07976 42.2473C8.08445 43.2501 9.4506 43.8061 10.87 43.7899C13.0308 43.7899 14.9786 42.4878 15.8045 40.4911C16.6304 38.4945 16.1717 36.1968 14.6424 34.6704C13.1131 33.144 10.8147 32.6896 8.81956 33.5193ZM10.8311 36.2002C12.1043 36.1784 13.1571 37.1869 13.19 38.4599C13.2238 39.0904 12.9923 39.7062 12.5516 40.1583C12.1109 40.6104 11.5011 40.8576 10.87 40.8399C9.59663 40.8395 8.56158 39.8127 8.55088 38.5394C8.54019 37.266 9.55785 36.2221 10.8311 36.2002Z" fill="#696871"/>
<path fill-rule="evenodd" clip-rule="evenodd" d="M28.27 43V33.42L25.32 33.45V34.45C24.6016 33.5739 23.5118 33.0883 22.38 33.14C19.5523 33.14 17.26 35.4323 17.26 38.26C17.26 41.0877 19.5523 43.38 22.38 43.38C23.5127 43.4366 24.6046 42.95 25.32 42.07V43C25.3781 43.618 25.146 44.228 24.6916 44.651C24.2373 45.074 23.6123 45.262 23 45.16C22.0606 45.2377 21.1689 44.7344 20.75 43.89L18.17 45.38C19.1785 47.0215 21.0188 47.9629 22.94 47.82C25.62 47.82 28.27 46.39 28.27 43ZM23.8851 35.9357C24.7929 36.3451 25.3608 37.265 25.32 38.26C25.3386 38.9038 25.0839 39.5254 24.6191 39.9712C24.1542 40.4171 23.5225 40.6454 22.88 40.6C21.8842 40.5991 20.9888 39.9933 20.6178 39.0692C20.2467 38.1451 20.4745 37.0882 21.1932 36.3989C21.9119 35.7097 22.9774 35.5263 23.8851 35.9357Z" fill="#696871"/>
<path fill-rule="evenodd" clip-rule="evenodd" d="M33.2895 33.5193C31.2944 34.3489 29.9959 36.2992 30 38.4599C29.9865 39.8793 30.545 41.2445 31.5497 42.2473C32.5544 43.2501 33.9206 43.8061 35.34 43.7899C37.5007 43.7899 39.4485 42.4878 40.2745 40.4911C41.1004 38.4945 40.6417 36.1968 39.1124 34.6704C37.5831 33.144 35.2846 32.6896 33.2895 33.5193ZM35.301 36.2002C36.5742 36.1784 37.6271 37.1869 37.66 38.4599H37.64C37.6734 39.0868 37.4446 39.6994 37.0083 40.1508C36.5721 40.6023 35.9677 40.8519 35.34 40.8399C34.0666 40.8395 33.0315 39.8127 33.0209 38.5394C33.0102 37.266 34.0278 36.2221 35.301 36.2002Z" fill="#696871"/>
<path fill-rule="evenodd" clip-rule="evenodd" d="M43.8901 28.8999C42.8849 28.8999 42.0701 29.7147 42.0701 30.7199C42.0755 31.7228 42.8872 32.5344 43.8901 32.5399C44.8952 32.5399 45.7101 31.7251 45.7101 30.7199C45.7101 29.7147 44.8952 28.8999 43.8901 28.8999ZM45.3801 33.4199H42.3801V43.4999H45.3801V33.4199Z" fill="#696871"/>
<path fill-rule="evenodd" clip-rule="evenodd" d="M57.1641 42.1257C58.067 41.1252 58.5335 39.8057 58.46 38.4599C58.5307 37.1158 58.063 35.7989 57.1604 34.8005C56.2577 33.8022 54.9944 33.2046 53.65 33.1399C52.5172 33.0855 51.4186 33.536 50.65 34.3699V33.4199H47.65V47.5599H50.65V42.5599C51.4186 43.3939 52.5172 43.8443 53.65 43.7899C54.9963 43.7253 56.2611 43.1263 57.1641 42.1257ZM53.0405 36.1208C54.3502 36.1097 55.4269 37.1506 55.46 38.4599H55.44C55.4876 39.1222 55.2465 39.7728 54.7789 40.2442C54.3113 40.7157 53.6627 40.962 53 40.9199C51.6908 40.8867 50.6498 39.8101 50.6609 38.5004C50.6719 37.1908 51.7309 36.1318 53.0405 36.1208Z" fill="#696871"/>
<path d="M67.8 40.4799C67.8 42.7999 65.8 43.7899 63.6 43.7899C61.802 43.9491 60.0879 42.999 59.27 41.3899L61.89 39.8999C62.1092 40.6494 62.8211 41.1448 63.6 41.0899C64.33 41.0899 64.69 40.8599 64.69 40.4599C64.69 39.3499 59.69 39.9399 59.69 36.4599C59.69 34.2599 61.55 33.1499 63.69 33.1499C65.2981 33.101 66.8064 33.9278 67.63 35.3099L65 36.6899C64.7626 36.1503 64.2295 35.8014 63.64 35.7999C63.12 35.7999 62.8 35.9999 62.8 36.3699C62.84 37.5199 67.8 36.7499 67.8 40.4799Z" fill="#696871"/>
<path d="M78.8401 33.4199V43.4999H75.8401V42.5599C75.1322 43.4071 74.0616 43.8643 72.9601 43.7899C70.9601 43.7899 69.1901 42.3399 69.1901 39.6099V33.4199H72.1901V39.1699C72.1366 39.6662 72.3093 40.1601 72.6603 40.5149C73.0113 40.8698 73.5033 41.0479 74.0001 40.9999C75.1001 40.9999 75.8701 40.3599 75.8701 38.9299V33.4199H78.8401Z" fill="#696871"/>
<path d="M96.18 37.32V43.5H93.18V37.58C93.18 36.58 92.69 35.92 91.73 35.92C90.77 35.92 90.15 36.63 90.15 37.82V43.5H87.15V37.58C87.15 36.58 86.67 35.92 85.7 35.92C84.73 35.92 84.13 36.63 84.13 37.82V43.5H81.13V33.42H84.13V34.35C84.767 33.5155 85.7832 33.0601 86.83 33.14C87.8825 33.0889 88.8847 33.5938 89.47 34.47C90.1503 33.5545 91.2528 33.0523 92.39 33.14C94.67 33.14 96.18 34.8 96.18 37.32Z" fill="#696871"/>
<path d="M98.74 33.3599C99.9771 33.3599 100.98 32.357 100.98 31.1199C100.98 29.8828 99.9771 28.8799 98.74 28.8799C97.5029 28.8799 96.5 29.8828 96.5 31.1199C96.5 32.357 97.5029 33.3599 98.74 33.3599Z" fill="#696871"/>
<path d="M34.74 21.1599C40.5335 21.1599 45.23 16.4634 45.23 10.6699C45.23 4.87646 40.5335 0.179932 34.74 0.179932C28.9465 0.179932 24.25 4.87646 24.25 10.6699C24.25 16.4634 28.9465 21.1599 34.74 21.1599Z" fill="#696871"/>
<path d="M58.1901 21.1599C63.9835 21.1599 68.6801 16.4634 68.6801 10.6699C68.6801 4.87646 63.9835 0.179932 58.1901 0.179932C52.3966 0.179932 47.7001 4.87646 47.7001 10.6699C47.7001 16.4634 52.3966 21.1599 58.1901 21.1599Z" fill="#696871"/>
<rect x="0.810059" y="0.179932" width="20.97" height="20.97" fill="#696871"/>
</svg>

<svg width="101" height="48" fill="none" xmlns="http://www.w3.org/2000/svg"><path d="M.79 28.79h3V43.5h-3V28.79z" fill="#696871"/><path fill-rule="evenodd" clip-rule="evenodd" d="M8.82 33.52a5.34 5.34 0 00-3.29 4.94 5.28 5.28 0 005.34 5.33 5.34 5.34 0 10-2.05-10.27zm2.011 2.68a2.32 2.32 0 012.359 2.26 2.26 2.26 0 01-2.32 2.38 2.32 2.32 0 01-.039-4.64zM28.27 43v-9.58l-2.95.03v1a3.59 3.59 0 00-2.94-1.31 5.12 5.12 0 100 10.24 3.56 3.56 0 002.94-1.31V43A2 2 0 0123 45.16a2.3 2.3 0 01-2.25-1.27l-2.58 1.49a5.15 5.15 0 004.77 2.44c2.68 0 5.33-1.43 5.33-4.82zm-4.385-7.064a2.44 2.44 0 011.435 2.324 2.28 2.28 0 01-2.44 2.34 2.44 2.44 0 111.005-4.664zm9.405-2.416A5.34 5.34 0 0030 38.46a5.28 5.28 0 005.34 5.33 5.34 5.34 0 10-2.05-10.27zm2.01 2.68a2.32 2.32 0 012.359 2.26h-.02a2.26 2.26 0 01-2.3 2.38 2.32 2.32 0 01-.039-4.64zm8.59-7.3a1.82 1.82 0 00-1.82 1.82 1.83 1.83 0 001.82 1.82 1.82 1.82 0 000-3.64zm1.49 4.52h-3V43.5h3V33.42zm11.784 8.706a5.06 5.06 0 001.296-3.666 5.06 5.06 0 00-4.81-5.32 3.83 3.83 0 00-3 1.23v-.95h-3v14.14h3v-5a3.83 3.83 0 003 1.23 5.06 5.06 0 003.514-1.664zm-4.123-6.005a2.4 2.4 0 012.419 2.339h-.02A2.3 2.3 0 0153 40.92a2.4 2.4 0 01.04-4.8z" fill="#696871"/><path d="M67.8 40.48c0 2.32-2 3.31-4.2 3.31a4.42 4.42 0 01-4.33-2.4l2.62-1.49a1.66 1.66 0 001.71 1.19c.73 0 1.09-.23 1.09-.63 0-1.11-5-.52-5-4 0-2.2 1.86-3.31 4-3.31a4.43 4.43 0 013.94 2.16L65 36.69a1.49 1.49 0 00-1.36-.89c-.52 0-.84.2-.84.57.04 1.15 5 .38 5 4.11zm11.04-7.06V43.5h-3v-.94a3.45 3.45 0 01-2.88 1.23c-2 0-3.77-1.45-3.77-4.18v-6.19h3v5.75A1.66 1.66 0 0074 41c1.1 0 1.87-.64 1.87-2.07v-5.51h2.97zm17.34 3.9v6.18h-3v-5.92c0-1-.49-1.66-1.45-1.66s-1.58.71-1.58 1.9v5.68h-3v-5.92c0-1-.48-1.66-1.45-1.66s-1.57.71-1.57 1.9v5.68h-3V33.42h3v.93a3.1 3.1 0 012.7-1.21 3 3 0 012.64 1.33 3.32 3.32 0 012.92-1.33c2.28 0 3.79 1.66 3.79 4.18zm2.56-3.96a2.24 2.24 0 100-4.48 2.24 2.24 0 000 4.48zm-64-12.2c5.793 0 10.49-4.697 10.49-10.49C45.23 4.876 40.533.18 34.74.18c-5.794 0-10.49 4.696-10.49 10.49 0 5.793 4.697 10.49 10.49 10.49zm23.45 0c5.794 0 10.49-4.697 10.49-10.49C68.68 4.876 63.983.18 58.19.18S47.7 4.876 47.7 10.67c0 5.793 4.697 10.49 10.49 10.49zM.81.18h20.97v20.97H.81z" fill="#696871"/></svg>
